imgs/analysisIcon.svg

<svg width="38" height="38" viewBox="0 0 38 38" fill="none" xmlns="http://www.w3.org/2000/svg">
<path d="M21.4883 6.72617C19.6702 4.84946 17.253 3.8158 14.6818 3.8158C12.1106 3.8158 9.69333 4.84938 7.87519 6.72617C4.12217 10.6003 4.12217 16.9041 7.87519 20.7784C9.69333 22.6551 12.1106 23.6887 14.6818 23.6887C17.253 23.6887 19.6702 22.6551 21.4883 20.7784C23.3064 18.9016 24.3077 16.4064 24.3077 13.7523C24.3077 11.0982 23.3064 8.60295 21.4883 6.72617ZM8.6504 7.52639C10.2614 5.86343 12.4034 4.94752 14.6817 4.94752C16.96 4.94752 19.102 5.86343 20.713 7.52639C21.9845 8.83884 22.8047 10.4929 23.094 12.288L20.1061 15.3041C19.8231 15.1393 19.4968 15.0448 19.1494 15.0448C18.473 15.0448 17.876 15.4016 17.5253 15.9422L13.1336 14.5198C13.1338 14.5067 13.1346 14.4936 13.1346 14.4804C13.1346 13.3685 12.2583 12.4639 11.181 12.4639C10.1039 12.4639 9.22753 13.3685 9.22753 14.4804C9.22753 14.8438 9.32164 15.1849 9.48536 15.4798L7.1811 17.9454C5.43265 14.6083 5.92197 10.3428 8.6504 7.52639ZM20.0067 17.0612C20.0067 17.5491 19.6221 17.9461 19.1495 17.9461C18.6768 17.9461 18.2922 17.5491 18.2922 17.0612C18.2922 16.5734 18.6768 16.1764 19.1495 16.1764C19.6221 16.1764 20.0067 16.5733 20.0067 17.0612ZM12.0383 14.4802C12.0383 14.9681 11.6537 15.3651 11.1811 15.3651C10.7084 15.3651 10.3238 14.9681 10.3238 14.4802C10.3238 13.9924 10.7084 13.5954 11.1811 13.5954C11.6537 13.5954 12.0383 13.9924 12.0383 14.4802ZM20.713 19.9782C19.102 21.6412 16.9601 22.5571 14.6818 22.5571C12.4035 22.5571 10.2615 21.6412 8.65048 19.9782C8.33052 19.6479 8.04159 19.2975 7.78316 18.9311L10.2743 16.2655C10.5455 16.4129 10.854 16.4968 11.1811 16.4968C11.8575 16.4968 12.4545 16.14 12.8052 15.5993L17.1969 17.0218C17.1967 17.0349 17.196 17.048 17.196 17.0612C17.196 18.1731 18.0723 19.0777 19.1495 19.0777C20.2266 19.0777 21.103 18.1731 21.103 17.0612C21.103 16.7186 21.0195 16.3958 20.8729 16.1129L23.2114 13.7524C23.2113 16.1042 22.324 18.3152 20.713 19.9782Z" fill="white"/>
<path d="M9.82755 7.9799L10.5467 8.83398C12.2466 7.30877 14.6299 6.83852 16.767 7.60687L17.1276 6.5382C14.6207 5.63677 11.8234 6.18922 9.82755 7.9799Z" fill="white"/>
<path d="M18.5347 7.224L17.9644 8.19047C18.2545 8.37289 18.533 8.58204 18.792 8.81203L19.5069 7.95404C19.2028 7.68406 18.8756 7.43844 18.5347 7.224Z" fill="white"/>
<path d="M15.9931 20.1198C14.7597 20.3882 13.4921 20.2753 12.327 19.7935L11.9193 20.8439C12.8028 21.2093 13.7361 21.3939 14.6763 21.3939C15.191 21.3939 15.7077 21.3385 16.2193 21.2272L15.9931 20.1198Z" fill="white"/>
<path d="M28.4135 22.8433L27.6175 23.6649L25.6429 21.4861C27.98 17.9595 28.5427 13.5477 27.3302 9.59485L28.8969 8.01333C29.1725 8.16702 29.4876 8.25435 29.8223 8.25435C30.8994 8.25435 31.7758 7.34971 31.7758 6.23783C31.7758 5.90854 31.6985 5.59773 31.5623 5.32284L34.9256 1.92789V3.68263H36.0218V0.017395H32.4712V1.14904H34.1291L30.8102 4.49917C30.5202 4.32289 30.1826 4.22122 29.8224 4.22122C28.7452 4.22122 27.8688 5.12587 27.8688 6.23775C27.8688 6.59354 27.9589 6.92788 28.1163 7.21839L26.9156 8.43041C26.2692 6.84146 25.3212 5.35333 24.0697 4.06148C18.8931 -1.28204 10.4705 -1.28188 5.29395 4.06148C0.682664 8.82152 0.179238 16.2405 3.78323 21.5812L2.86024 22.5688C2.58905 22.4214 2.28059 22.3376 1.95344 22.3376C0.876301 22.3375 0 23.2421 0 24.354C0 25.4659 0.876301 26.3705 1.95351 26.3705C3.03072 26.3705 3.90702 25.4659 3.90702 24.354C3.90702 23.9905 3.81291 23.6495 3.64911 23.3546L4.4555 22.4917C4.71823 22.8188 4.99715 23.1366 5.29387 23.4429C7.88218 26.1147 11.282 27.4505 14.6818 27.4505C17.2916 27.4505 19.9012 26.6623 22.1439 25.0879L24.1232 27.2719L23.3002 28.1215L32.8865 37.9826L38 32.7044L28.4135 22.8433ZM29.8224 5.35295C30.295 5.35295 30.6796 5.74996 30.6796 6.23783C30.6796 6.7257 30.295 7.12271 29.8224 7.12271C29.3497 7.12271 28.9651 6.7257 28.9651 6.23783C28.9651 5.74996 29.3497 5.35295 29.8224 5.35295ZM1.95351 25.2388C1.48089 25.2388 1.09629 24.8418 1.09629 24.3539C1.09629 23.8661 1.48089 23.4691 1.95351 23.4691C2.42621 23.4691 2.81074 23.8661 2.81074 24.3539C2.81066 24.8419 2.42614 25.2388 1.95351 25.2388ZM6.06909 22.6428C1.32005 17.7406 1.32005 9.76409 6.06909 4.86171C8.44357 2.41055 11.5626 1.18513 14.6817 1.18513C17.8008 1.18513 20.92 2.41071 23.2944 4.86171C28.0435 9.76394 28.0435 17.7405 23.2944 22.6428C18.5456 27.5449 10.818 27.5449 6.06909 22.6428ZM23.0299 24.409C23.3888 24.1091 23.736 23.7873 24.0697 23.4429C24.3921 23.1101 24.6944 22.7643 24.9765 22.4072L26.842 24.4654L24.8989 26.4712L23.0299 24.409ZM32.8853 36.3836L24.852 28.1201L28.4149 24.4422L36.4482 32.7057L32.8853 36.3836Z" fill="white"/>
<path d="M28.4142 26.085L26.8455 27.7042L27.6208 28.5045L28.4142 27.6854L31.4398 30.8086L32.215 30.0084L28.4142 26.085Z" fill="white"/>
<path d="M33.1568 30.9747L32.3817 31.7786L33.1904 32.6173L33.9655 31.8134L33.1568 30.9747Z" fill="white"/>
<path d="M7.03592 28.0302H5.93964V29.2631H7.03592V28.0302Z" fill="white"/>
<path d="M7.03592 34.9407H5.93964V36.1736H7.03592V34.9407Z" fill="white"/>
<path d="M16.0648 30.4081H14.9685V31.641H16.0648V30.4081Z" fill="white"/>
<path d="M31.7758 20.2302H30.6795V21.4632H31.7758V20.2302Z" fill="white"/>
<path d="M33.0196 10.4107H31.9233V11.6436H33.0196V10.4107Z" fill="white"/>
<path d="M36.6527 15.6102H35.5564V16.8431H36.6527V15.6102Z" fill="white"/>
</svg>

<svg xmlns="http://www.w3.org/2000/svg" width="38" height="38" fill="#fff" xmlns:v="https://vecta.io/nano"><path d="M21.488 6.726c-1.818-1.877-4.235-2.91-6.806-2.91S9.694 4.85 7.875 6.726c-3.753 3.874-3.753 10.178 0 14.052 1.818 1.877 4.235 2.91 6.807 2.91s4.988-1.034 6.806-2.91 2.819-4.372 2.819-7.026-1.001-5.149-2.819-7.026zm-12.838.8c1.611-1.663 3.753-2.579 6.031-2.579s4.42.916 6.031 2.579a8.84 8.84 0 0 1 2.381 4.762l-2.988 3.016a1.89 1.89 0 0 0-.957-.259 1.94 1.94 0 0 0-1.624.897l-4.392-1.422.001-.039c0-1.112-.876-2.016-1.954-2.016s-1.953.905-1.953 2.016a2.05 2.05 0 0 0 .258.999L7.18 17.946c-1.747-3.338-1.258-7.603 1.47-10.42zm11.356 9.535c0 .488-.385.885-.857.885s-.857-.397-.857-.885.385-.885.857-.885.857.397.857.885zm-7.968-2.581c0 .488-.385.885-.857.885s-.857-.397-.857-.885.385-.885.857-.885.857.397.857.885zm8.675 5.498c-1.611 1.663-3.753 2.579-6.031 2.579s-4.42-.916-6.031-2.579c-.32-.33-.609-.681-.867-1.047l2.491-2.666c.271.147.58.231.907.231.676 0 1.273-.357 1.624-.898l4.392 1.422-.001.039c0 1.112.876 2.017 1.953 2.017s1.954-.905 1.954-2.017a2.06 2.06 0 0 0-.23-.948l2.339-2.36c0 2.352-.887 4.563-2.498 6.226zM9.828 7.98l.719.854c1.7-1.525 4.083-1.995 6.22-1.227l.361-1.069a7.25 7.25 0 0 0-7.3 1.442zm8.707-.756l-.57.966c.29.182.569.392.828.622l.715-.858a7.42 7.42 0 0 0-.972-.73zM15.993 20.12c-1.233.268-2.501.155-3.666-.326l-.408 1.05a7.2 7.2 0 0 0 2.757.55 7.21 7.21 0 0 0 1.543-.167l-.226-1.107zm12.421 2.723l-.796.822-1.975-2.179c2.337-3.527 2.9-7.938 1.687-11.891l1.567-1.582a1.89 1.89 0 0 0 .925.241c1.077 0 1.954-.905 1.954-2.017a2.06 2.06 0 0 0-.213-.915l3.363-3.395v1.755h1.096V.017h-3.551v1.132h1.658l-3.319 3.35a1.9 1.9 0 0 0-.988-.278c-1.077 0-1.954.905-1.954 2.017a2.06 2.06 0 0 0 .247.981L26.916 8.43c-.646-1.589-1.594-3.077-2.846-4.369-5.177-5.344-13.599-5.343-18.776 0C.683 8.822.179 16.241 3.783 21.581l-.923.988a1.89 1.89 0 0 0-.907-.231C.876 22.338 0 23.242 0 24.354s.876 2.017 1.954 2.017 1.954-.905 1.954-2.017a2.05 2.05 0 0 0-.258-.999l.806-.863a13.66 13.66 0 0 0 .838.951c2.588 2.672 5.988 4.008 9.388 4.008a12.97 12.97 0 0 0 7.462-2.363l1.979 2.184-.823.85 9.586 9.861L38 32.704l-9.586-9.861zm1.409-17.49c.473 0 .857.397.857.885s-.385.885-.857.885-.857-.397-.857-.885.385-.885.857-.885zM1.954 25.239c-.473 0-.857-.397-.857-.885s.385-.885.857-.885.857.397.857.885-.385.885-.857.885zm4.116-2.596c-4.749-4.902-4.749-12.879 0-17.781a11.95 11.95 0 0 1 8.613-3.677 11.95 11.95 0 0 1 8.613 3.677c4.749 4.902 4.749 12.879 0 17.781s-12.476 4.902-17.225 0zm16.961 1.766c.359-.3.706-.622 1.04-.966.322-.333.625-.679.907-1.036l1.865 2.058-1.943 2.006-1.869-2.062zm9.855 11.975l-8.033-8.263 3.563-3.678 8.033 8.264-3.563 3.678zm-4.472-10.299l-1.569 1.619.775.8.793-.819 3.026 3.123.775-.8-3.801-3.923zm4.743 4.89l-.775.804.809.839.775-.804-.809-.839zM7.036 28.03H5.94v1.233h1.096V28.03zm0 6.911H5.94v1.233h1.096v-1.233zm9.029-4.533h-1.096v1.233h1.096v-1.233zM31.776 20.23H30.68v1.233h1.096V20.23zm1.244-9.819h-1.096v1.233h1.096v-1.233zm3.633 5.199h-1.096v1.233h1.096V15.61z"/></svg>
